src/lib/packages/icons/src/assets/filled/phone-slash.svg

<svg width="24" height="24" viewBox="0 0 24 24" fill="none" xmlns="http://www.w3.org/2000/svg">
<path d="M21 17.032C21 17.132 20.99 17.232 20.97 17.332C20.46 19.892 17.8899 21.532 15.3689 20.842C13.4679 20.315 11.692 19.487 10.114 18.392C9.95904 18.285 9.94197 18.059 10.075 17.926L12.1201 15.881C12.2141 15.787 12.3581 15.769 12.4741 15.835C12.8841 16.069 13.309 16.28 13.75 16.462L14.8701 14.792C15.4801 13.892 16.6901 13.612 17.6201 14.172L20.27 15.752C20.72 16.032 21 16.522 21 17.032ZM21.5301 2.46999C21.2371 2.17699 20.762 2.17699 20.469 2.46999L9.53201 13.407C8.70901 12.473 8.02911 11.405 7.53811 10.232L9.19802 9.13198C10.108 8.52198 10.3879 7.31198 9.8279 6.38198L8.26809 3.742C7.93809 3.192 7.308 2.90201 6.678 3.03201H6.66799C4.10799 3.55201 2.46798 6.12198 3.15798 8.63198C3.90898 11.361 5.29503 13.8 7.13503 15.805L2.46902 20.47C2.17602 20.763 2.17602 21.238 2.46902 21.531C2.61502 21.677 2.80705 21.751 2.99905 21.751C3.19105 21.751 3.38308 21.678 3.52908 21.531L21.5291 3.531C21.8231 3.238 21.8231 2.76199 21.5301 2.46999Z" fill="currentColor"/>
</svg>

<svg xmlns="http://www.w3.org/2000/svg" width="24" height="24" fill="none"><path fill="currentColor" d="M21 17.032c0 .1-.01.2-.03.3-.51 2.56-3.08 4.2-5.601 3.51a17.327 17.327 0 0 1-5.255-2.45.306.306 0 0 1-.039-.466l2.045-2.045a.293.293 0 0 1 .354-.046c.41.234.835.445 1.276.627l1.12-1.67c.61-.9 1.82-1.18 2.75-.62l2.65 1.58c.45.28.73.77.73 1.28Zm.53-14.562a.75.75 0 0 0-1.061 0L9.532 13.407a11.553 11.553 0 0 1-1.994-3.175l1.66-1.1c.91-.61 1.19-1.82.63-2.75l-1.56-2.64a1.5 1.5 0 0 0-1.59-.71h-.01c-2.56.52-4.2 3.09-3.51 5.6a17.445 17.445 0 0 0 3.977 7.173L2.469 20.47a.75.75 0 0 0 1.06 1.061l18-18a.75.75 0 0 0 .001-1.061Z"/></svg>
